!!!COM: Martin, Frank
!!!OTL: Trio sur des mélodies populaires irlandaises (Trio on Popular Irish Melodies) for Violin, Violincello and Piano
!!!OMV: III: Gigue
!!!example: 542
!!!work: Mai-11
**kern	**kern	**dynam	**kern	**dynam	**kern
*part3	*part3	*part3	*part2	*part2	*part1
*staff4	*staff3	*	*staff2	*	*staff1
*I"Piano	*	*	*I"Violoncello	*	*I"Violin
*I'Pno.	*	*	*I'Vc.	*	*I'Vln.
*clefG2	*clefG2	*	*clefF4	*	*clefG2
*k[]	*k[]	*	*k[]	*	*k[]
*C:	*C:	*	*C:	*	*C:
*M4/4	*M4/4	*	*M4/4	*	*M4/4
=129	=	=	=	=	=
4e-X' 4g-X 4cc-X	2gg-X 2eee-X	.	2C	p	1r
8e-'L 8g- 8b-X	.	.	.	.	.
8e-'J 8g- 8b-	.	.	.	.	.
4e-' 4g- 4cc-	(4ff 4ddd-X	.	[2D-X	.	.
8e-'L 8g- 8b-	4gg- 4eee-	.	.	.	.
8e-'J 8g- 8b-	.	.	.	.	.
=130	=130	=130	=130	=130	=130
4e-X' 4g-X 4cc-X	4ff) 4ddd-X	.	4D-]	.	1r
4e-' 4g- 4b-X	2ee-X 2ccc	.	2E-X	.	.
4e-' 4g- 4cc-	.	.	.	.	.
4e-' 4g- 4b-	(4dd-X 4bb-X	.	[4F	.	.
=131	=131	=131	=131	=131	=131
4e-X' 4g-X 4cc-X	4ee-X 4ccc	.	2F]	.	1r
8e-'L 8g- 8b-X	4ff) 4ddd-X	.	.	.	.
8e-'J 8g- 8b-	.	.	.	.	.
4e-' 4g- 4cc-	(4gg-X 4eee-X	.	(2G-X	.	.
8e-'L 8g- 8b-	4aa-X) 4fff	.	.	.	.
8e-'J 8g- 8b-	.	.	.	.	.
=132	=132	=132	=132	=132	=132
4e-X' 4g-X 4cc-X	(8gg-XL 8eee-X	.	4F)	.	1r
.	8aa-XJ 8fff	.	.	.	.
4e-' 4g- 4ccn	2bb-X) 2ggg-X	.	2E-X	.	.
4e-' 4g- 4dd-X	.	.	.	.	.
4e-' 4g- 4cc	[4ccc [4aaa-X	.	[4D-X	.	.
=133	=133	=133	=133	=133	=133
4e-X' 4g-X 4cc-X	4ccc] 4aaa-]	.	4D-]	.	1r
4e-' 4g- 4b-X	(12bb-XL 12ggg-X	.	(4E-X	.	.
.	12aaa-X	.	.	.	.
.	12ggg-J	.	.	.	.
4e-' 4g- 4cc-	12aa-XL 12fff	.	4F)	.	.
.	12ggg-	.	.	.	.
.	12fffJ	.	.	.	.
4e-' 4g- 4b-	[4gg-X [4eee-X	.	[4G-X	.	.
=134	=134	=134	=134	=134	=134
!!linebreak:original
4e-X' 4g-X 4cc-X	8gg-L]) 8eee-]	.	4G-]	.	1r
.	8ff'J 8ddd-X	.	.	.	.
4d-X' 4g- 4b	2ee-X 2ccc	.	(4A-X	<	.
4cn' 4g- 4a-X	.	.	4B-X)	.	.
*clefF4	*	*	*	*	*
4CC 4C	(16enLL	>	(8A-L	.	.
.	16f	.	.	.	.
.	16f#X	.	8B-J)	[	.
.	16gnJJ	.	.	.	.
=135	=135	=135	=135	=135	=135
4FFF 4FF	4A) 4e-X 4a-X	]	2c	.	1r
4CC 4C	8AL 8e- 8g	.	.	.	.
.	8AJ 8e- 8g	.	.	.	.
4FFF 4FF	4A 4e- 4a-	.	(4B-X	.	.
4CC 4C	8AL 8e- 8g	.	4c	.	.
.	8AJ 8e- 8g	.	.	.	.
=136	=136	=136	=136	=136	=136
4FFF 4FF	4A 4e-X 4a-X	.	4B-X)	.	1r
4CC 4C	4A 4e- 4g	.	2An	.	.
4FFF 4FF	4A 4e- 4a-	.	.	.	.
4CCC 4CC	(16enLL	.	(4G	.	.
.	16f	.	.	.	.
.	16f#X	.	.	.	.
.	16gJJ	.	.	.	.
=137	=137	=137	=137	=137	=137
4FFF 4FF	4A) 4e-X 4a-X	.	4A	.	1r
4CC 4C	8AL 8e- 8g	.	4B-X)	.	.
.	8AJ 8e- 8g	.	.	.	.
4FFF 4FF	4A 4e- 4a-	.	(4c	.	.
4CC 4C	8AL 8e- 8g	.	4d)	.	.
.	8AJ 8e- 8g	.	.	.	.
=138	=138	=138	=138	=138	=138
4FFF 4FF	4A 4e-X 4a-X	.	(8cL	.	1r
.	.	.	8dJ	.	.
4CC 4C	4A 4e- 4g	.	2e-X)	.	.
4FFF 4FF	4A 4e- 4a-	.	.	.	.
4CCC 4CC	(16enLL)	.	4f	.	.
.	16f	.	.	.	.
.	16f#X	.	.	.	.
.	16gJJ	.	.	.	.
==	==	==	==	==	==
*-	*-	*-	*-	*-	*-
!!!CDT: 1890/09/15-1974/11/21
!!!CBL: Geneva, Switzerland
!!!CDL: Naarden, Netherlands
!!!CNT: Swiss
!!!AGN: Instrumental; Chamber
!!!MCN:
!!!MDT: 1926/04/01
!!!MGN:
!!!MLC: Paris, France
!!!MPD: 1926
!!!MPN: Martin, Frank
!!!ODT: 1925
!!!PDT: 1955
!!!excerpt-start-measure: 129
!!!excerpt-end-measure: 138
!!!excerpt-start-time: 2:22
!!!excerpt-end-time: 2:34
!!!EEV: 2020/01/17
!!!system-decoration: [(s1,s2)]{(s3,s4)}
!!!ONB: Converted from MusicXML on 2020/01/17
